img/icons/more-details/custom-co-branded-app.svg

<svg xmlns="http://www.w3.org/2000/svg" width="31.67" height="49.31"><path d="M3.44.31A3.14 3.14 0 0 0 .31 3.44v42.43A3.14 3.14 0 0 0 3.44 49h24.78a3.14 3.14 0 0 0 3.13-3.13V3.44A3.14 3.14 0 0 0 28.22.31zm0 1.25h24.78a1.86 1.86 0 0 1 1.88 1.88v3.13H1.56V3.44a1.86 1.86 0 0 1 1.88-1.88zM1.56 7.82H30.1V39H1.56zm0 32.42H30.1v5.63a1.86 1.86 0 0 1-1.88 1.88H3.44a1.86 1.86 0 0 1-1.88-1.88z" fill="#378fdb"/><path d="M28.22 49.31H3.44A3.45 3.45 0 0 1 0 45.87V3.44A3.45 3.45 0 0 1 3.44 0h24.78a3.45 3.45 0 0 1 3.44 3.44v42.43a3.45 3.45 0 0 1-3.44 3.44zM3.44.63A2.82 2.82 0 0 0 .63 3.44v42.43a2.82 2.82 0 0 0 2.82 2.82h24.77A2.82 2.82 0 0 0 31 45.87V3.44A2.82 2.82 0 0 0 28.22.63zm24.78 47.43H3.44a2.17 2.17 0 0 1-2.19-2.19v-5.94h29.16v5.94a2.17 2.17 0 0 1-2.19 2.19zM1.88 40.55v5.32a1.55 1.55 0 0 0 1.56 1.56h24.78a1.55 1.55 0 0 0 1.56-1.56v-5.32zm28.53-1.25H1.25V7.51h29.16zm-28.53-.62h27.91V8.13H1.88zm28.53-31.8H1.25V3.44a2.17 2.17 0 0 1 2.19-2.19h24.78a2.17 2.17 0 0 1 2.19 2.19zM1.88 6.26h27.91V3.44a1.55 1.55 0 0 0-1.56-1.56H3.44a1.55 1.55 0 0 0-1.56 1.56z" fill="#378fdb"/><path d="M19.6 30.17a1.52 1.52 0 0 1-.7-.17l-2.3-1.21a1.33 1.33 0 0 0-1.07 0L13.27 30a1.17 1.17 0 0 1-1.79-1.3l.44-2.56a1.32 1.32 0 0 0-.35-1l-1.83-1.8a1.17 1.17 0 0 1 .67-2.1l2.59-.38a1.33 1.33 0 0 0 .86-.65L15 17.93a1.25 1.25 0 0 1 1.11-.79 1.25 1.25 0 0 1 1.11.79l1.14 2.33a1.33 1.33 0 0 0 .88.61l2.53.36a1.17 1.17 0 0 1 .68 2.1l-1.85 1.8a1.33 1.33 0 0 0-.31 1l.43 2.51a1.25 1.25 0 0 1-.47 1.36 1.09 1.09 0 0 1-.65.17zm-3.51-3a2.81 2.81 0 0 1 1.16.25l1.86 1-.34-2a2.86 2.86 0 0 1 .72-2.28l1.51-1.5-2-.3A2.86 2.86 0 0 1 17 21l-.92-1.88-.91 1.84a2.86 2.86 0 0 1-1.93 1.42l-2.07.3 1.47 1.42a2.86 2.86 0 0 1 .76 2.27L13 28.4l1.82-1a3 3 0 0 1 1.28-.23z" fill="#378fdb"/></svg>

<svg xmlns="http://www.w3.org/2000/svg" width="31.67" height="49.31" viewBox="0 0 31.67 49.31"><title>custom-co-branded-app</title><path d="M3.44.31A3.14,3.14,0,0,0,.31,3.44V45.87A3.14,3.14,0,0,0,3.44,49H28.22a3.14,3.14,0,0,0,3.13-3.13V3.44A3.14,3.14,0,0,0,28.22.31Zm0,1.25H28.22A1.86,1.86,0,0,1,30.1,3.44V6.57H1.56V3.44A1.86,1.86,0,0,1,3.44,1.56ZM1.56,7.82H30.1V39H1.56Zm0,32.42H30.1v5.63a1.86,1.86,0,0,1-1.88,1.88H3.44a1.86,1.86,0,0,1-1.88-1.88Z" style="fill:#378fdb"/><path d="M28.22,49.31H3.44A3.45,3.45,0,0,1,0,45.87V3.44A3.45,3.45,0,0,1,3.44,0H28.22a3.45,3.45,0,0,1,3.44,3.44V45.87A3.45,3.45,0,0,1,28.22,49.31ZM3.44.63A2.82,2.82,0,0,0,.63,3.44V45.87a2.82,2.82,0,0,0,2.82,2.82H28.22A2.82,2.82,0,0,0,31,45.87V3.44A2.82,2.82,0,0,0,28.22.63ZM28.22,48.06H3.44a2.17,2.17,0,0,1-2.19-2.19V39.93H30.41v5.94A2.17,2.17,0,0,1,28.22,48.06ZM1.88,40.55v5.32a1.55,1.55,0,0,0,1.56,1.56H28.22a1.55,1.55,0,0,0,1.56-1.56V40.55ZM30.41,39.3H1.25V7.51H30.41ZM1.88,38.68H29.79V8.13H1.88ZM30.41,6.88H1.25V3.44A2.17,2.17,0,0,1,3.44,1.25H28.22a2.17,2.17,0,0,1,2.19,2.19ZM1.88,6.26H29.79V3.44a1.55,1.55,0,0,0-1.56-1.56H3.44A1.55,1.55,0,0,0,1.88,3.44Z" style="fill:#378fdb"/><path d="M19.6,30.17A1.52,1.52,0,0,1,18.9,30l-2.3-1.21a1.33,1.33,0,0,0-1.07,0L13.27,30a1.17,1.17,0,0,1-1.79-1.3l.44-2.56a1.32,1.32,0,0,0-.35-1L9.74,23.34a1.17,1.17,0,0,1,.67-2.1L13,20.86a1.33,1.33,0,0,0,.86-.65L15,17.93a1.25,1.25,0,0,1,1.11-.79h0a1.25,1.25,0,0,1,1.11.79l1.14,2.33a1.33,1.33,0,0,0,.88.61l2.53.36a1.17,1.17,0,0,1,.68,2.1l-1.85,1.8a1.33,1.33,0,0,0-.31,1l.43,2.51A1.25,1.25,0,0,1,20.25,30,1.09,1.09,0,0,1,19.6,30.17Zm-3.51-3a2.81,2.81,0,0,1,1.16.25l1.86,1-.34-2a2.86,2.86,0,0,1,.72-2.28L21,22.64l-2-.3A2.86,2.86,0,0,1,17,21l-.92-1.88-.91,1.84a2.86,2.86,0,0,1-1.93,1.42l-2.07.3,1.47,1.42a2.86,2.86,0,0,1,.76,2.27L13,28.4l1.82-1A3,3,0,0,1,16.1,27.17Z" style="fill:#378fdb"/></svg>
